img/logo.svg

<svg width="215" height="54" viewBox="0 0 215 54" fill="none" xmlns="http://www.w3.org/2000/svg">
<path d="M155.794 30.3312H144.476L142.046 37.0296L145.742 40.2596V40.5844H134.482V40.2596L139.621 36.0221L148.893 10.9304L146.091 3.05002H151.805H156.656L169.243 38.2737L172.478 40.2596V40.5844H170.067H159.442H155.386V40.2596L158.62 38.2737L157.762 35.8635L155.794 30.3312ZM154.882 27.7678L150.19 14.5788L145.405 27.7678H154.882ZM179.956 19.957C180.224 18.8538 180.547 17.7353 181.037 16.8534C181.496 16.026 181.899 15.5479 182.894 15.4905C183.589 15.4499 183.906 15.7939 184.406 16.252C186.534 18.2034 190.731 23.42 191.687 24.5232L192.332 24.4856L193.59 15.8559C192.539 15.3265 191.56 14.8109 190.188 14.411C188.168 13.8218 185.912 13.3491 183.078 13.5131C182.491 13.5468 182.057 13.5797 181.489 13.6648C175.162 14.6079 171.45 19.5303 170.54 24.9553C170.38 25.9107 170.339 26.7978 170.339 27.7639C170.339 35.9056 175.882 41.1598 183.735 41.1598C189.625 41.1598 193.062 38.853 195.533 34.1336L194.961 33.6249C193.171 34.8376 191.233 35.5586 188.808 35.5586C185.3 35.5586 182.501 33.7145 180.961 30.843C179.471 28.0673 179.193 23.0905 179.956 19.957ZM214.595 37.2931L214.582 37.3046C213.953 38.0064 213.04 38.4484 212.024 38.4484C210.127 38.4484 208.59 36.9108 208.59 35.0146V35.0138V15.1779H214.769V13.4487H208.59V2.60413L199.063 5.09406V12.8596L194.674 14.2455V15.1787H198.601V32.9277C198.601 38.9633 203.041 41.1628 206.646 41.1628C210.284 41.1628 213.671 39.7187 215 37.8708L214.595 37.2931Z" fill="#E3000F"/>
<path d="M98.7661 35.2544C99.0105 36.661 100.24 37.7267 101.716 37.7198C102.569 37.7152 103.338 37.3528 103.878 36.7752H103.878V36.7744V32.7062V26.2661C100.125 26.9587 98.5661 29.5574 98.5661 33.2525C98.5661 34.0301 98.6366 34.6951 98.7661 35.2544ZM101.052 15.4261C99.7667 15.8697 93.6805 23.5188 92.4884 24.9185H91.8433L90.8573 16.3454C91.9253 15.754 92.9205 15.1809 94.3049 14.7013C96.3436 13.9942 98.6144 13.3897 101.443 13.3897C110.624 13.3897 113.867 17.7973 113.867 23.5134V36.0826C113.867 37.6991 114.791 38.5656 116.003 38.5656C116.466 38.5656 117.043 38.4499 117.679 38.2193L117.852 38.5656C116.524 40.2979 114.388 41.0487 111.673 41.0487C107.978 41.0487 105.321 39.7202 104.34 37.5252C102.551 39.662 99.605 41.0487 96.3137 41.0487C91.6947 41.0487 88.8646 38.5074 88.8646 34.3496C88.8646 29.0372 93.4836 26.093 103.878 25.3414V20.0872C103.878 18.4753 103.708 17.3376 103.393 16.5523C103.369 16.5109 102.834 15.3587 101.566 15.3587C101.389 15.3587 101.216 15.3824 101.052 15.4261ZM28.8618 26.3175L20.4527 38.8537H13.5115V5.3591L16.8028 3.43074V3.10744H0V3.43074L3.23308 5.3591V38.2729L0 40.2588V40.5836C9.83562 40.5836 19.6712 40.5836 29.5069 40.5836V26.3175H28.8618ZM40.9935 23.7287C40.9935 21.8524 41.2341 17.8892 42.8935 16.0819C43.4827 15.4406 44.2902 15.1357 45.0747 15.1357C45.8592 15.1357 46.6667 15.4399 47.2566 16.0819C48.9161 17.8892 49.1566 21.8532 49.1566 23.7287H40.9935ZM56.6808 24.1845C56.6808 18.237 51.8871 13.5016 45.1314 13.5016C37.9711 13.5016 31.7355 18.6983 31.7355 27.7647C31.7355 35.9064 37.2785 41.1605 45.1314 41.1605C51.0214 41.1605 54.4583 38.8537 56.9291 34.1343L56.3575 33.6256C54.5678 34.8384 52.6295 35.5593 50.2047 35.5593C44.7767 35.5593 41.0464 31.1441 41.0464 25.3391H56.6801V24.1845H56.6808ZM70.6789 30.3626L70.6781 30.3611C69.9847 29.2226 69.5971 27.0246 69.5971 23.1457C69.5971 17.487 70.2529 15.302 71.4795 14.6661L71.4917 14.66L71.4956 14.6577C71.7729 14.5106 72.0901 14.4263 72.4264 14.4263C73.0899 14.4263 73.6775 14.7511 74.0384 15.2514L74.043 15.2583L74.046 15.2637L74.0476 15.266C74.826 16.3508 75.255 18.6561 75.255 23.1464C75.255 26.9143 74.8734 29.0985 74.2238 30.2638L74.2222 30.2661C73.9035 30.938 73.2194 31.403 72.4257 31.403C71.6718 31.4023 71.0152 30.9817 70.6789 30.3626ZM75.1401 42.7196C77.7388 42.7196 79.4703 44.3361 79.4703 46.8199C79.4703 49.9373 76.7566 52.1898 72.1368 52.1898C67.9223 52.1898 66.0736 49.4761 66.0736 45.7811C66.0736 44.3944 66.1893 43.4137 66.5364 42.7204H67.1133H75.1401V42.7196ZM87.9015 9.34452C84.2632 10.6148 81.6645 12.1739 79.0665 14.6569C77.2768 13.9061 75.0251 13.5016 72.4264 13.5016C64.1683 13.5016 59.8963 16.966 59.8963 23.2606C59.8963 26.3787 61.1666 28.8036 63.7078 30.3634C61.3979 31.3441 59.0306 33.1345 59.0306 36.4266C59.0306 39.6597 60.9942 41.9113 64.8049 42.5472C60.3583 42.951 57.9909 44.51 57.9909 47.3976C57.9909 51.0352 61.9174 53.2287 71.9644 53.2287C80.3375 53.2287 87.3829 49.591 87.3829 42.8935C87.3829 38.5043 84.3222 34.925 78.6635 34.925H66.364C64.6318 34.925 63.6504 34.1159 63.6504 32.9031C63.6504 32.2105 63.9967 31.5172 64.8057 30.9403C66.7111 31.8635 69.2516 32.3262 72.3697 32.3262C80.6846 32.3262 84.8424 28.8625 84.8424 23.2024C84.8424 20.0275 83.6296 17.5437 81.3197 15.8697H87.9031V9.34452H87.9015ZM130.599 0L117.376 3.10821V3.846L120.609 5.83181V38.2729L117.376 40.2588V40.5836H120.609H130.599H133.832V40.2588L130.599 38.2729V0Z" fill="#2B2B2B"/>
<path d="M213.648 45.3374L211.206 49.2463V51.8235H210.085V49.2463L207.635 45.3374H208.947L210.668 48.2074L212.372 45.3374H213.648ZM205.816 49.3558C205.756 50.1511 205.472 50.7869 204.965 51.2643C204.458 51.7408 203.8 51.9791 202.992 51.9791C202.075 51.9791 201.341 51.6695 200.788 51.0497C200.235 50.4299 199.959 49.6079 199.959 48.5813C199.959 47.9615 200.078 47.3984 200.314 46.8912C200.552 46.3848 200.906 45.9749 201.381 45.6623C201.854 45.3497 202.409 45.1934 203.048 45.1934C203.734 45.1934 204.332 45.3827 204.842 45.7619C205.352 46.1419 205.659 46.6897 205.762 47.406H204.632C204.553 47.0176 204.371 46.7127 204.086 46.4913C203.8 46.2691 203.448 46.158 203.029 46.158C202.598 46.158 202.232 46.279 201.931 46.5227C201.631 46.7655 201.419 47.0651 201.294 47.4198C201.169 47.7753 201.107 48.163 201.107 48.582C201.107 48.8977 201.143 49.1957 201.217 49.4746C201.289 49.7542 201.399 50.0101 201.544 50.2445C201.69 50.4782 201.889 50.6652 202.141 50.8046C202.393 50.944 202.686 51.0137 203.02 51.0137C203.985 51.0137 204.538 50.4606 204.678 49.3558H205.816ZM197.411 45.3374V51.8235H196.236L193.211 47.0505V51.8235H192.136V45.3374H193.329L196.317 50.1197V45.3374H197.411ZM189.553 45.3374V46.2943H186.01V48.0159H189.298V48.936H186.01V50.849H189.607V51.8228H184.88V45.3367H189.553V45.3374ZM182.141 48.353V51.8235H181.412L181.239 51.049C180.722 51.6688 180.049 51.9783 179.216 51.9783C178.306 51.9783 177.566 51.6688 176.998 51.049C176.431 50.4292 176.146 49.6224 176.146 48.6265C176.146 47.6489 176.432 46.833 177.003 46.181C177.574 45.5275 178.345 45.2018 179.317 45.2018C180.021 45.2018 180.636 45.3987 181.161 45.7933C181.687 46.1886 181.986 46.7257 182.059 47.4052H180.957C180.89 47.0168 180.709 46.7119 180.414 46.4905C180.12 46.2683 179.751 46.1572 179.308 46.1572C178.683 46.1572 178.191 46.3763 177.833 46.813C177.475 47.2497 177.295 47.8488 177.295 48.6073C177.295 49.3727 177.476 49.9726 177.837 50.407C178.198 50.8406 178.701 51.0589 179.345 51.0589C179.91 51.0589 180.346 50.8827 180.652 50.5303C180.958 50.1787 181.112 49.7443 181.112 49.2279H179.363V48.353H182.141ZM172.169 49.2463L171.203 46.5135L170.192 49.2463H172.169ZM171.804 45.329L174.309 51.8243H173.089L172.469 50.1028H169.899L169.262 51.8243H168.087L170.592 45.329H171.804ZM164.069 48.353V51.8235H163.34L163.167 51.049C162.651 51.6688 161.977 51.9783 161.145 51.9783C160.234 51.9783 159.494 51.6688 158.927 51.049C158.359 50.4292 158.075 49.6224 158.075 48.6265C158.075 47.6489 158.361 46.833 158.931 46.181C159.502 45.5275 160.274 45.2018 161.245 45.2018C161.949 45.2018 162.564 45.3987 163.09 45.7933C163.615 46.1879 163.914 46.7257 163.987 47.4052H162.885C162.818 47.0168 162.637 46.7119 162.343 46.4905C162.048 46.2683 161.679 46.1572 161.236 46.1572C160.611 46.1572 160.119 46.3763 159.76 46.813C159.402 47.2497 159.222 47.8488 159.222 48.6073C159.222 49.3727 159.403 49.9726 159.765 50.407C160.127 50.8414 160.628 51.0589 161.273 51.0589C161.837 51.0589 162.273 50.8827 162.58 50.5303C162.886 50.1787 163.04 49.7443 163.04 49.2279H161.291V48.353H164.069ZM155.527 45.3374V51.8235H154.352L151.327 47.0505V51.8235H150.253V45.3374H151.446L154.434 50.1197V45.3374H155.527ZM147.368 45.3374V51.8235H146.22V45.3374H147.368ZM143.937 45.3374V46.3212H141.869V51.8235H140.73V46.3212H138.663V45.3374H143.937ZM137.8 50.8398V51.8235H133.355V45.3374H134.502V50.8398H137.8ZM130.524 45.3374V49.3098C130.524 51.0712 129.644 51.9515 127.882 51.9515C126.965 51.9515 126.289 51.7331 125.855 51.2957C125.421 50.859 125.204 50.1909 125.204 49.2915V45.3382H126.342V49.5198C126.342 50.5158 126.862 51.0137 127.9 51.0137C128.216 51.0137 128.475 50.9708 128.679 50.8858C128.883 50.8015 129.032 50.6705 129.13 50.4943C129.227 50.3181 129.293 50.1281 129.33 49.9251C129.366 49.7213 129.385 49.4677 129.385 49.1643V45.3382H130.524V45.3374ZM122.493 47.2513H121.408C121.342 46.4928 120.871 46.1128 119.996 46.1128C119.608 46.1128 119.304 46.1932 119.086 46.3541C118.867 46.515 118.758 46.7349 118.758 47.0145C118.758 47.2758 118.838 47.4543 118.999 47.5516C119.16 47.6489 119.517 47.7669 120.069 47.9071C120.215 47.95 120.327 47.9798 120.406 47.9982C121.129 48.1798 121.621 48.3437 121.882 48.4901C122.459 48.7996 122.747 49.2823 122.747 49.9389C122.747 50.2246 122.699 50.482 122.601 50.7134C122.504 50.944 122.374 51.1371 122.21 51.2918C122.046 51.4466 121.851 51.5761 121.627 51.6795C121.402 51.7822 121.169 51.8565 120.926 51.9024C120.683 51.9484 120.431 51.9706 120.17 51.9706C119.355 51.9706 118.697 51.776 118.192 51.3876C117.688 50.9984 117.436 50.4277 117.436 49.6753H118.556C118.556 50.1488 118.711 50.4997 119.02 50.7272C119.33 50.9547 119.734 51.0689 120.232 51.0689C120.67 51.0689 121.012 50.9793 121.257 50.8C121.503 50.6207 121.625 50.3694 121.625 50.0484C121.625 49.8416 121.56 49.6738 121.43 49.5428C121.3 49.4125 121.159 49.3198 121.006 49.2654C120.854 49.211 120.59 49.1344 120.213 49.0379C120.171 49.0256 120.137 49.0164 120.113 49.0103C119.305 48.8034 118.774 48.6341 118.519 48.5C117.991 48.2273 117.708 47.8052 117.671 47.2344C117.671 47.1915 117.671 47.1493 117.671 47.1064C117.671 46.5295 117.888 46.0691 118.322 45.7266C118.757 45.3834 119.338 45.2118 120.067 45.2118C120.772 45.2118 121.346 45.3788 121.789 45.7121C122.234 46.0454 122.468 46.5587 122.493 47.2513ZM114.98 45.3374V51.8235H113.805L110.781 47.0505V51.8235H109.706V45.3374H110.899L113.887 50.1197V45.3374H114.98ZM104.052 46.1396C103.456 46.1396 102.98 46.3595 102.621 46.7992C102.263 47.2398 102.083 47.8274 102.083 48.5629C102.083 49.3152 102.261 49.9136 102.617 50.3572C102.971 50.8007 103.456 51.0222 104.069 51.0222C104.659 51.0222 105.131 50.7992 105.486 50.3526C105.841 49.9059 106.019 49.3129 106.019 48.5721C106.019 47.8305 105.841 47.2405 105.486 46.8C105.131 46.3595 104.652 46.1396 104.052 46.1396ZM104.069 45.1827C104.986 45.1827 105.732 45.4976 106.306 46.1258C106.879 46.754 107.167 47.573 107.167 48.5805C107.167 49.588 106.879 50.407 106.302 51.0352C105.725 51.6634 104.975 51.9775 104.052 51.9775C103.122 51.9775 102.371 51.665 101.797 51.039C101.223 50.4131 100.936 49.5933 100.936 48.5797C100.936 47.596 101.217 46.7831 101.779 46.1427C102.34 45.5037 103.104 45.1827 104.069 45.1827ZM98.7248 49.3558C98.6642 50.1511 98.38 50.7869 97.8728 51.2643C97.3656 51.7408 96.7083 51.9791 95.9008 51.9791C94.9837 51.9791 94.249 51.6695 93.6966 51.0497C93.1443 50.4299 92.8677 49.6079 92.8677 48.5813C92.8677 47.9615 92.9864 47.3984 93.2232 46.8912C93.4599 46.3848 93.8154 45.9749 94.2888 45.6623C94.7623 45.3497 95.3185 45.1934 95.956 45.1934C96.6424 45.1934 97.2408 45.3827 97.751 45.7619C98.2612 46.1419 98.5677 46.6897 98.6711 47.406H97.5411C97.4622 47.0176 97.2798 46.7127 96.9948 46.4913C96.7091 46.2691 96.3574 46.158 95.9383 46.158C95.507 46.158 95.1408 46.279 94.8405 46.5227C94.5401 46.7655 94.3272 47.0651 94.203 47.4198C94.0782 47.7753 94.0161 48.163 94.0161 48.582C94.0161 48.8977 94.0521 49.1957 94.1257 49.4746C94.1984 49.7542 94.308 50.0101 94.4536 50.2445C94.5991 50.4782 94.7983 50.6652 95.0504 50.8046C95.3024 50.944 95.5951 51.0137 95.9299 51.0137C96.8952 51.0137 97.4476 50.4606 97.5878 49.3558H98.7248Z" fill="#2B2B2B"/>
</svg>

<svg width="215" height="54" fill="none" xmlns="http://www.w3.org/2000/svg"><path d="M155.794 30.331h-11.318l-2.43 6.699 3.696 3.23v.324h-11.26v-.324l5.139-4.238 9.272-25.092-2.802-7.88h10.565l12.587 35.224 3.235 1.986v.324h-17.092v-.324l3.234-1.986-.858-2.41-1.968-5.533zm-.912-2.563l-4.692-13.19-4.785 13.19h9.477zm25.074-7.811c.268-1.103.591-2.222 1.081-3.104.459-.827.862-1.305 1.857-1.363.695-.04 1.012.304 1.512.762 2.128 1.951 6.325 7.168 7.281 8.271l.645-.037 1.258-8.63c-1.051-.53-2.03-1.045-3.402-1.445-2.02-.59-4.276-1.062-7.11-.898-.587.034-1.021.067-1.589.152-6.327.943-10.039 5.865-10.949 11.29-.16.956-.201 1.843-.201 2.809 0 8.142 5.543 13.396 13.396 13.396 5.89 0 9.327-2.307 11.798-7.026l-.572-.51c-1.79 1.214-3.728 1.935-6.153 1.935-3.508 0-6.307-1.844-7.847-4.716-1.49-2.776-1.768-7.753-1.005-10.886zm34.639 17.336l-.013.012a3.434 3.434 0 01-5.992-2.29V15.178h6.179v-1.73h-6.179V2.605l-9.527 2.49v7.766l-4.389 1.386v.933h3.927v17.749c0 6.035 4.44 8.235 8.045 8.235 3.638 0 7.025-1.444 8.354-3.292l-.405-.578z" fill="#E3000F"/><path d="M98.766 35.254a2.98 2.98 0 005.112 1.521v-10.51c-3.753.693-5.312 3.291-5.312 6.986 0 .778.07 1.443.2 2.002zm2.286-19.828c-1.285.444-7.372 8.093-8.564 9.493h-.645l-.986-8.574c1.068-.591 2.064-1.164 3.448-1.644 2.039-.707 4.31-1.311 7.138-1.311 9.181 0 12.424 4.407 12.424 10.123v12.57c0 1.616.924 2.483 2.136 2.483.463 0 1.04-.116 1.676-.347l.173.347c-1.328 1.732-3.464 2.483-6.179 2.483-3.695 0-6.352-1.329-7.333-3.524-1.789 2.137-4.735 3.524-8.026 3.524-4.62 0-7.45-2.542-7.45-6.7 0-5.312 4.62-8.256 15.014-9.008v-5.254c0-1.612-.17-2.75-.485-3.535-.024-.041-.559-1.193-1.827-1.193-.177 0-.35.023-.514.067zm-72.19 10.891l-8.41 12.537h-6.94V5.359l3.29-1.928v-.324H0v.324l3.233 1.928v32.914L0 40.259v.325h29.507V26.317h-.645zm12.131-2.588c0-1.877.241-5.84 1.9-7.647a2.952 2.952 0 012.182-.946c.784 0 1.592.304 2.182.946 1.66 1.807 1.9 5.771 1.9 7.647h-8.163zm15.688.456c0-5.948-4.794-10.683-11.55-10.683-7.16 0-13.396 5.196-13.396 14.263 0 8.141 5.544 13.395 13.396 13.395 5.89 0 9.327-2.306 11.798-7.026l-.572-.508c-1.79 1.212-3.727 1.933-6.152 1.933-5.428 0-9.159-4.415-9.159-10.22H56.68v-1.154zm13.998 6.178v-.002c-.694-1.138-1.082-3.336-1.082-7.215 0-5.659.656-7.844 1.883-8.48l.012-.006.004-.002a1.983 1.983 0 012.543.594l.004.006.003.006.002.002c.778 1.085 1.207 3.39 1.207 7.88 0 3.768-.382 5.953-1.031 7.118l-.002.002a1.987 1.987 0 01-3.543.097zM75.14 42.72c2.599 0 4.33 1.616 4.33 4.1 0 3.117-2.713 5.37-7.333 5.37-4.215 0-6.063-2.714-6.063-6.409 0-1.387.115-2.367.462-3.06h8.604v-.001zM87.901 9.345c-3.638 1.27-6.236 2.829-8.834 5.312-1.79-.75-4.042-1.155-6.64-1.155-8.259 0-12.53 3.464-12.53 9.759 0 3.118 1.27 5.543 3.81 7.102-2.31.981-4.676 2.772-4.676 6.064 0 3.233 1.963 5.484 5.774 6.12-4.447.404-6.814 1.963-6.814 4.85 0 3.638 3.926 5.832 13.973 5.832 8.374 0 15.419-3.638 15.419-10.335 0-4.39-3.06-7.969-8.72-7.969H66.364c-1.732 0-2.714-.81-2.714-2.022 0-.692.347-1.386 1.156-1.963 1.905.923 4.446 1.386 7.564 1.386 8.315 0 12.472-3.463 12.472-9.124 0-3.175-1.212-5.658-3.522-7.332h6.583V9.345h-.002zM130.6 0l-13.223 3.108v.738l3.233 1.986v32.44l-3.233 1.987v.325h16.456v-.325l-3.233-1.986V0zm83.048 45.337l-2.442 3.91v2.577h-1.121v-2.578l-2.45-3.909h1.312l1.721 2.87 1.704-2.87h1.276zm-7.832 4.019c-.06.795-.344 1.43-.851 1.908-.507.477-1.165.715-1.973.715-.917 0-1.651-.31-2.204-.93-.553-.62-.829-1.441-.829-2.468 0-.62.119-1.183.355-1.69a2.942 2.942 0 011.067-1.229c.473-.312 1.028-.469 1.667-.469.686 0 1.284.19 1.794.569.51.38.817.928.92 1.644h-1.13a1.493 1.493 0 00-.546-.915c-.286-.222-.638-.333-1.057-.333-.431 0-.797.121-1.098.365-.3.242-.512.542-.637.897a3.482 3.482 0 00-.187 1.162c0 .316.036.614.11.893.072.28.182.535.327.77.146.233.345.42.597.56.252.139.545.209.879.209.965 0 1.518-.553 1.658-1.658h1.138zm-8.405-4.019v6.486h-1.175l-3.025-4.773v4.774h-1.075v-6.487h1.193l2.988 4.783v-4.783h1.094zm-7.858 0v.957h-3.543v1.722h3.288v.92h-3.288v1.913h3.597v.974h-4.727v-6.486h4.673zm-7.412 3.016v3.47h-.729l-.173-.774c-.517.62-1.19.93-2.023.93-.91 0-1.65-.31-2.218-.93-.567-.62-.852-1.427-.852-2.422 0-.978.286-1.794.857-2.446.571-.653 1.342-.98 2.314-.98.704 0 1.319.198 1.844.592.526.396.825.933.898 1.612h-1.102a1.393 1.393 0 00-.543-.915c-.294-.222-.663-.333-1.106-.333-.625 0-1.117.22-1.475.656-.358.437-.538 1.036-.538 1.794 0 .766.181 1.366.542 1.8.361.434.864.652 1.508.652.565 0 1.001-.176 1.307-.529.306-.351.46-.786.46-1.302h-1.749v-.875h2.778zm-9.972.893l-.966-2.733-1.011 2.733h1.977zm-.365-3.917l2.505 6.495h-1.22l-.62-1.721h-2.57l-.637 1.721h-1.175l2.505-6.495h1.212zm-7.735 3.024v3.47h-.729l-.173-.774c-.516.62-1.19.93-2.022.93-.911 0-1.651-.31-2.218-.93-.568-.62-.852-1.427-.852-2.422 0-.978.286-1.794.856-2.446.571-.653 1.343-.98 2.314-.98.704 0 1.319.198 1.845.592.525.395.824.933.897 1.612h-1.102a1.396 1.396 0 00-.542-.915c-.295-.222-.664-.333-1.107-.333-.625 0-1.117.22-1.476.656-.358.437-.538 1.036-.538 1.794 0 .766.181 1.366.543 1.8.362.434.863.652 1.508.652.564 0 1-.176 1.307-.529.306-.351.46-.786.46-1.302h-1.749v-.875h2.778zm-8.542-3.016v6.486h-1.175l-3.025-4.773v4.774h-1.074v-6.487h1.193l2.988 4.783v-4.783h1.093zm-8.159 0v6.486h-1.148v-6.486h1.148zm-3.431 0v.984h-2.068v5.503h-1.139V46.32h-2.067v-.984h5.274zM137.8 50.84v.983h-4.445v-6.486h1.147v5.503h3.298zm-7.276-5.503v3.973c0 1.761-.88 2.642-2.642 2.642-.917 0-1.593-.219-2.027-.656-.434-.437-.651-1.105-.651-2.005v-3.953h1.138v4.182c0 .996.52 1.494 1.558 1.494.316 0 .575-.043.779-.128a.882.882 0 00.451-.392c.097-.176.163-.366.2-.569.036-.204.055-.457.055-.76v-3.827h1.139zm-8.031 1.914h-1.085c-.066-.758-.537-1.138-1.412-1.138-.388 0-.692.08-.91.241a.775.775 0 00-.328.66c0 .262.08.44.241.538.161.097.518.215 1.07.355.146.043.258.073.337.091.723.182 1.215.346 1.476.492.577.31.865.792.865 1.449 0 .286-.048.543-.146.774a1.676 1.676 0 01-.391.579 2.162 2.162 0 01-.583.387 3.038 3.038 0 01-.701.223 4.057 4.057 0 01-.756.069c-.815 0-1.473-.195-1.978-.583-.504-.39-.756-.96-.756-1.713h1.12c0 .474.155.825.464 1.052.31.228.714.342 1.212.342.438 0 .78-.09 1.025-.269.246-.18.368-.43.368-.752a.686.686 0 00-.195-.505 1.137 1.137 0 00-.424-.278 10.067 10.067 0 00-.793-.227 2.964 2.964 0 00-.1-.028c-.808-.207-1.339-.376-1.594-.51-.528-.273-.811-.695-.848-1.266v-.128c0-.577.217-1.037.651-1.38.435-.343 1.016-.514 1.745-.514.705 0 1.279.167 1.722.5.445.333.679.847.704 1.54zm-7.513-1.914v6.486h-1.175l-3.024-4.773v4.774h-1.075v-6.487h1.193l2.988 4.783v-4.783h1.093zm-10.928.803c-.596 0-1.072.22-1.431.66-.358.44-.538 1.027-.538 1.763 0 .752.178 1.35.534 1.794.354.444.839.665 1.452.665.59 0 1.062-.223 1.417-.67.355-.446.533-1.04.533-1.78 0-.742-.178-1.332-.533-1.772-.355-.44-.834-.66-1.434-.66zm.017-.957c.917 0 1.663.315 2.237.943.573.628.861 1.447.861 2.455 0 1.007-.288 1.826-.865 2.454-.577.628-1.327.943-2.25.943-.93 0-1.681-.313-2.255-.939-.574-.626-.861-1.446-.861-2.46 0-.983.281-1.796.843-2.436.561-.64 1.325-.96 2.29-.96zm-5.344 4.173c-.06.795-.345 1.43-.852 1.908-.507.477-1.165.715-1.972.715-.917 0-1.652-.31-2.204-.93-.553-.62-.83-1.441-.83-2.468 0-.62.12-1.183.356-1.69a2.941 2.941 0 011.066-1.229c.473-.312 1.03-.469 1.667-.469.686 0 1.285.19 1.795.569.51.38.817.928.92 1.644h-1.13a1.49 1.49 0 00-.546-.915c-.286-.222-.638-.333-1.057-.333-.431 0-.797.121-1.097.365-.3.242-.514.542-.638.897a3.487 3.487 0 00-.187 1.162c0 .316.036.614.11.893.072.28.182.535.328.77.145.233.344.42.596.56.252.139.545.209.88.209.965 0 1.518-.553 1.658-1.658h1.137z" fill="#2B2B2B"/></svg>
